app/assets/images/heroicons/mini/printer.svg

<svg width="20" height="20" viewBox="0 0 20 20" fill="none" xmlns="http://www.w3.org/2000/svg">
<path fill-rule="evenodd" clip-rule="evenodd" d="M5 2.75C5 1.7835 5.7835 1 6.75 1H13.25C14.2165 1 15 1.7835 15 2.75V6.25C15 6.26733 14.9997 6.28459 14.9992 6.3018C15.3765 6.34767 15.7522 6.39867 16.1263 6.45472C17.2246 6.6193 18 7.57138 18 8.65297V12.75C18 13.9926 16.9926 15 15.75 15H15.5086L15.8138 16.9839C15.9769 18.044 15.1567 19 14.0842 19H5.91541C4.84287 19 4.02268 18.044 4.18576 16.9839L4.49098 15H4.25C3.00736 15 2 13.9926 2 12.75V8.65298C2 7.57138 2.77538 6.6193 3.87368 6.45472C4.24776 6.39867 4.62347 6.34767 5.00075 6.3018C5.00025 6.28459 5 6.26733 5 6.25V2.75ZM13.5 6.14734C12.3461 6.04977 11.1788 6 10 6C8.82119 6 7.65386 6.04977 6.5 6.14734V2.75C6.5 2.61193 6.61193 2.5 6.75 2.5H13.25C13.3881 2.5 13.5 2.61193 13.5 2.75V6.14734ZM6.60772 12.5C6.48433 12.5 6.37939 12.59 6.36063 12.712L5.66832 17.212C5.64502 17.3634 5.76219 17.5 5.91541 17.5H14.0842C14.2374 17.5 14.3546 17.3634 14.3313 17.212L13.639 12.712C13.6202 12.59 13.5153 12.5 13.3919 12.5H6.60772Z" fill="#0F172A"/>
</svg>

<svg xmlns="http://www.w3.org/2000/svg" viewBox="0 0 20 20" fill="currentColor" aria-hidden="true" data-slot="icon">
  <path fill-rule="evenodd" d="M5 2.75C5 1.784 5.784 1 6.75 1h6.5c.966 0 1.75.784 1.75 1.75v3.552c.377.046.752.097 1.126.153A2.212 2.212 0 0 1 18 8.653v4.097A2.25 2.25 0 0 1 15.75 15h-.241l.305 1.984A1.75 1.75 0 0 1 14.084 19H5.915a1.75 1.75 0 0 1-1.73-2.016L4.492 15H4.25A2.25 2.25 0 0 1 2 12.75V8.653c0-1.082.775-2.034 1.874-2.198.374-.056.75-.107 1.127-.153L5 6.25v-3.5Zm8.5 3.397a41.533 41.533 0 0 0-7 0V2.75a.25.25 0 0 1 .25-.25h6.5a.25.25 0 0 1 .25.25v3.397ZM6.608 12.5a.25.25 0 0 0-.247.212l-.693 4.5a.25.25 0 0 0 .247.288h8.17a.25.25 0 0 0 .246-.288l-.692-4.5a.25.25 0 0 0-.247-.212H6.608Z" clip-rule="evenodd"/>
</svg>
